bernoullicharts/2014_add_x_0_5_bits.svg

<?xml version="1.0" encoding="utf-8" standalone="no"?>
<!DOCTYPE svg PUBLIC "-//W3C//DTD SVG 1.1//EN"
  "http://www.w3.org/Graphics/SVG/1.1/DTD/svg11.dtd">
<!-- Created with matplotlib (https://matplotlib.org/) -->
<svg height="345.6pt" version="1.1" viewBox="0 0 460.8 345.6" width="460.8pt" xmlns="http://www.w3.org/2000/svg" xmlns:xlink="http://www.w3.org/1999/xlink">
 <defs>
  <style type="text/css">
*{stroke-linecap:butt;stroke-linejoin:round;}
  </style>
 </defs>
 <g id="figure_1">
  <g id="patch_1">
   <path d="M 0 345.6 
L 460.8 345.6 
L 460.8 0 
L 0 0 
z
" style="fill:#ffffff;"/>
  </g>
  <g id="axes_1">
   <g id="patch_2">
    <path d="M 57.6 307.584 
L 414.72 307.584 
L 414.72 41.472 
L 57.6 41.472 
z
" style="fill:#ffffff;"/>
   </g>
   <g id="matplotlib.axis_1">
    <g id="xtick_1">
     <g id="line2d_1">
      <defs>
       <path d="M 0 0 
L 0 3.5 
" id="m858ee2d93d" style="stroke:#000000;stroke-width:0.8;"/>
      </defs>
      <g>
       <use style="stroke:#000000;stroke-width:0.8;" x="73.745843" xlink:href="#m858ee2d93d" y="307.584"/>
      </g>
     </g>
     <g id="text_1">
      <text style="font-family:DejaVu Sans;font-size:10px;font-style:normal;font-weight:normal;text-anchor:middle;" transform="rotate(-0, 73.745843, 322.182437)" x="73.745843" y="322.182437">0.00</text>
     </g>
    </g>
    <g id="xtick_2">
     <g id="line2d_2">
      <g>
       <use style="stroke:#000000;stroke-width:0.8;" x="117.188045" xlink:href="#m858ee2d93d" y="307.584"/>
      </g>
     </g>
     <g id="text_2">
      <text style="font-family:DejaVu Sans;font-size:10px;font-style:normal;font-weight:normal;text-anchor:middle;" transform="rotate(-0, 117.188045, 322.182437)" x="117.188045" y="322.182437">0.05</text>
     </g>
    </g>
    <g id="xtick_3">
     <g id="line2d_3">
      <g>
       <use style="stroke:#000000;stroke-width:0.8;" x="160.630247" xlink:href="#m858ee2d93d" y="307.584"/>
      </g>
     </g>
     <g id="text_3">
      <text style="font-family:DejaVu Sans;font-size:10px;font-style:normal;font-weight:normal;text-anchor:middle;" transform="rotate(-0, 160.630247, 322.182437)" x="160.630247" y="322.182437">0.10</text>
     </g>
    </g>
    <g id="xtick_4">
     <g id="line2d_4">
      <g>
       <use style="stroke:#000000;stroke-width:0.8;" x="204.072449" xlink:href="#m858ee2d93d" y="307.584"/>
      </g>
     </g>
     <g id="text_4">
      <text style="font-family:DejaVu Sans;font-size:10px;font-style:normal;font-weight:normal;text-anchor:middle;" transform="rotate(-0, 204.072449, 322.182437)" x="204.072449" y="322.182437">0.15</text>
     </g>
    </g>
    <g id="xtick_5">
     <g id="line2d_5">
      <g>
       <use style="stroke:#000000;stroke-width:0.8;" x="247.514651" xlink:href="#m858ee2d93d" y="307.584"/>
      </g>
     </g>
     <g id="text_5">
      <text style="font-family:DejaVu Sans;font-size:10px;font-style:normal;font-weight:normal;text-anchor:middle;" transform="rotate(-0, 247.514651, 322.182437)" x="247.514651" y="322.182437">0.20</text>
     </g>
    </g>
    <g id="xtick_6">
     <g id="line2d_6">
      <g>
       <use style="stroke:#000000;stroke-width:0.8;" x="290.956853" xlink:href="#m858ee2d93d" y="307.584"/>
      </g>
     </g>
     <g id="text_6">
      <text style="font-family:DejaVu Sans;font-size:10px;font-style:normal;font-weight:normal;text-anchor:middle;" transform="rotate(-0, 290.956853, 322.182437)" x="290.956853" y="322.182437">0.25</text>
     </g>
    </g>
    <g id="xtick_7">
     <g id="line2d_7">
      <g>
       <use style="stroke:#000000;stroke-width:0.8;" x="334.399055" xlink:href="#m858ee2d93d" y="307.584"/>
      </g>
     </g>
     <g id="text_7">
      <text style="font-family:DejaVu Sans;font-size:10px;font-style:normal;font-weight:normal;text-anchor:middle;" transform="rotate(-0, 334.399055, 322.182437)" x="334.399055" y="322.182437">0.30</text>
     </g>
    </g>
    <g id="xtick_8">
     <g id="line2d_8">
      <g>
       <use style="stroke:#000000;stroke-width:0.8;" x="377.841257" xlink:href="#m858ee2d93d" y="307.584"/>
      </g>
     </g>
     <g id="text_8">
      <text style="font-family:DejaVu Sans;font-size:10px;font-style:normal;font-weight:normal;text-anchor:middle;" transform="rotate(-0, 377.841257, 322.182437)" x="377.841257" y="322.182437">0.35</text>
     </g>
    </g>
    <g id="text_9">
     <text style="font-family:DejaVu Sans;font-size:10px;font-style:normal;font-weight:normal;text-anchor:middle;" transform="rotate(-0, 236.16, 335.860562)" x="236.16" y="335.860562">Probability</text>
    </g>
   </g>
   <g id="matplotlib.axis_2">
    <g id="ytick_1">
     <g id="line2d_9">
      <defs>
       <path d="M 0 0 
L -3.5 0 
" id="m7d0c6c78ad" style="stroke:#000000;stroke-width:0.8;"/>
      </defs>
      <g>
       <use style="stroke:#000000;stroke-width:0.8;" x="57.6" xlink:href="#m7d0c6c78ad" y="290.744392"/>
      </g>
     </g>
     <g id="text_10">
      <text style="font-family:DejaVu Sans;font-size:10px;font-style:normal;font-weight:normal;text-anchor:end;" transform="rotate(-0, 50.6, 294.543611)" x="50.6" y="294.543611">50</text>
     </g>
    </g>
    <g id="ytick_2">
     <g id="line2d_10">
      <g>
       <use style="stroke:#000000;stroke-width:0.8;" x="57.6" xlink:href="#m7d0c6c78ad" y="240.937509"/>
      </g>
     </g>
     <g id="text_11">
      <text style="font-family:DejaVu Sans;font-size:10px;font-style:normal;font-weight:normal;text-anchor:end;" transform="rotate(-0, 50.6, 244.736728)" x="50.6" y="244.736728">100</text>
     </g>
    </g>
    <g id="ytick_3">
     <g id="line2d_11">
      <g>
       <use style="stroke:#000000;stroke-width:0.8;" x="57.6" xlink:href="#m7d0c6c78ad" y="191.130626"/>
      </g>
     </g>
     <g id="text_12">
      <text style="font-family:DejaVu Sans;font-size:10px;font-style:normal;font-weight:normal;text-anchor:end;" transform="rotate(-0, 50.6, 194.929845)" x="50.6" y="194.929845">150</text>
     </g>
    </g>
    <g id="ytick_4">
     <g id="line2d_12">
      <g>
       <use style="stroke:#000000;stroke-width:0.8;" x="57.6" xlink:href="#m7d0c6c78ad" y="141.323743"/>
      </g>
     </g>
     <g id="text_13">
      <text style="font-family:DejaVu Sans;font-size:10px;font-style:normal;font-weight:normal;text-anchor:end;" transform="rotate(-0, 50.6, 145.122962)" x="50.6" y="145.122962">200</text>
     </g>
    </g>
    <g id="ytick_5">
     <g id="line2d_13">
      <g>
       <use style="stroke:#000000;stroke-width:0.8;" x="57.6" xlink:href="#m7d0c6c78ad" y="91.51686"/>
      </g>
     </g>
     <g id="text_14">
      <text style="font-family:DejaVu Sans;font-size:10px;font-style:normal;font-weight:normal;text-anchor:end;" transform="rotate(-0, 50.6, 95.316079)" x="50.6" y="95.316079">250</text>
     </g>
    </g>
    <g id="ytick_6">
     <g id="line2d_14">
      <g>
       <use style="stroke:#000000;stroke-width:0.8;" x="57.6" xlink:href="#m7d0c6c78ad" y="41.709977"/>
      </g>
     </g>
     <g id="text_15">
      <text style="font-family:DejaVu Sans;font-size:10px;font-style:normal;font-weight:normal;text-anchor:end;" transform="rotate(-0, 50.6, 45.509196)" x="50.6" y="45.509196">300</text>
     </g>
    </g>
    <g id="text_16">
     <text style="font-family:DejaVu Sans;font-size:10px;font-style:normal;font-weight:normal;text-anchor:middle;" transform="rotate(-90, 25.432812, 174.528)" x="25.432812" y="174.528">Average Bits Consumed Per Call</text>
    </g>
   </g>
   <g id="line2d_15">
    <path clip-path="url(#p436586ba5c)" d="M 73.832727 284.036401 
L 82.607174 295.488 
L 91.381622 289.220302 
L 100.156069 294.236851 
L 108.930516 285.857341 
L 117.704963 279.846646 
L 126.47941 279.111497 
L 135.253857 275.109016 
L 144.028305 284.612169 
L 152.802752 277.667097 
L 161.577199 289.088812 
L 170.351646 280.316823 
L 179.126093 278.976022 
M 196.674988 269.604359 
L 205.449435 270.600497 
L 214.223882 272.078765 
L 222.998329 267.086123 
M 240.547224 271.090596 
L 249.321671 273.572971 
L 258.096118 271.257948 
L 266.870565 259.780449 
L 275.645012 250.165729 
L 284.419459 248.338812 
L 293.193907 264.049895 
L 301.968354 257.064978 
L 310.742801 239.192276 
L 319.517248 252.897138 
M 337.066143 245.808623 
M 354.615037 206.718189 
M 372.163931 237.353406 
L 380.938378 234.530352 
M 398.487273 231.66546 
" style="fill:none;stroke:#1f77b4;stroke-linecap:square;stroke-width:1.5;"/>
   </g>
   <g id="line2d_16">
    <path clip-path="url(#p436586ba5c)" d="M 73.832727 212.948033 
L 82.607174 218.560273 
L 91.381622 224.30998 
L 100.156069 224.307987 
L 108.930516 230.75499 
L 117.704963 198.850693 
L 126.47941 204.795643 
L 135.253857 207.439392 
L 144.028305 196.457971 
L 152.802752 198.54986 
L 161.577199 184.992426 
L 170.351646 201.20357 
L 179.126093 192.983442 
L 187.900541 185.97661 
M 205.449435 185.946726 
L 214.223882 158.845805 
L 222.998329 160.937694 
L 231.772776 150.924518 
L 240.547224 144.718581 
L 249.321671 110.800093 
L 258.096118 112.656894 
L 266.870565 133.968263 
L 275.645012 117.03193 
L 284.419459 109.174396 
L 293.193907 133.251044 
L 301.968354 100.00993 
M 363.389484 53.568 
" style="fill:none;stroke:#ff7f0e;stroke-linecap:square;stroke-width:1.5;"/>
   </g>
   <g id="line2d_17">
    <path clip-path="url(#p436586ba5c)" d="M 0 0 
" style="fill:none;stroke:#2ca02c;stroke-linecap:square;stroke-width:1.5;"/>
   </g>
   <g id="patch_3">
    <path d="M 57.6 307.584 
L 57.6 41.472 
" style="fill:none;stroke:#000000;stroke-linecap:square;stroke-linejoin:miter;stroke-width:0.8;"/>
   </g>
   <g id="patch_4">
    <path d="M 414.72 307.584 
L 414.72 41.472 
" style="fill:none;stroke:#000000;stroke-linecap:square;stroke-linejoin:miter;stroke-width:0.8;"/>
   </g>
   <g id="patch_5">
    <path d="M 57.6 307.584 
L 414.72 307.584 
" style="fill:none;stroke:#000000;stroke-linecap:square;stroke-linejoin:miter;stroke-width:0.8;"/>
   </g>
   <g id="patch_6">
    <path d="M 57.6 41.472 
L 414.72 41.472 
" style="fill:none;stroke:#000000;stroke-linecap:square;stroke-linejoin:miter;stroke-width:0.8;"/>
   </g>
   <g id="text_17">
    <text style="font-family:DejaVu Sans;font-size:12px;font-style:normal;font-weight:normal;text-anchor:middle;" transform="rotate(-0, 236.16, 35.472)" x="236.16" y="35.472">Avg. Bits Consumed</text>
   </g>
   <g id="legend_1">
    <g id="patch_7">
     <path d="M 64.6 93.506375 
L 181.148438 93.506375 
Q 183.148438 93.506375 183.148438 91.506375 
L 183.148438 48.472 
Q 183.148438 46.472 181.148438 46.472 
L 64.6 46.472 
Q 62.6 46.472 62.6 48.472 
L 62.6 91.506375 
Q 62.6 93.506375 64.6 93.506375 
z
" style="fill:#ffffff;opacity:0.8;stroke:#cccccc;stroke-linejoin:miter;"/>
    </g>
    <g id="line2d_18">
     <path d="M 66.6 54.570438 
L 86.6 54.570438 
" style="fill:none;stroke:#1f77b4;stroke-linecap:square;stroke-width:1.5;"/>
    </g>
    <g id="line2d_19"/>
    <g id="text_18">
     <text style="font-family:DejaVu Sans;font-size:10px;font-style:normal;font-weight:normal;text-anchor:start;" transform="rotate(-0, 94.6, 58.070438)" x="94.6" y="58.070438">2014 Add. x+0.5</text>
    </g>
    <g id="line2d_20">
     <path d="M 66.6 69.248563 
L 86.6 69.248563 
" style="fill:none;stroke:#ff7f0e;stroke-linecap:square;stroke-width:1.5;"/>
    </g>
    <g id="line2d_21"/>
    <g id="text_19">
     <text style="font-family:DejaVu Sans;font-size:10px;font-style:normal;font-weight:normal;text-anchor:start;" transform="rotate(-0, 94.6, 72.748563)" x="94.6" y="72.748563">2016 Add. x+0.5</text>
    </g>
    <g id="line2d_22">
     <path d="M 66.6 83.926688 
L 86.6 83.926688 
" style="fill:none;stroke:#2ca02c;stroke-linecap:square;stroke-width:1.5;"/>
    </g>
    <g id="line2d_23"/>
    <g id="text_20">
     <text style="font-family:DejaVu Sans;font-size:10px;font-style:normal;font-weight:normal;text-anchor:start;" transform="rotate(-0, 94.6, 87.426688)" x="94.6" y="87.426688">2019 Add. x+0.5</text>
    </g>
   </g>
  </g>
 </g>
 <defs>
  <clipPath id="p436586ba5c">
   <rect height="266.112" width="357.12" x="57.6" y="41.472"/>
  </clipPath>
 </defs>
</svg>

<svg height="460.8" viewBox="0 0 460.8 345.6" width="614.4" xmlns="http://www.w3.org/2000/svg" xmlns:xlink="http://www.w3.org/1999/xlink"><defs><style>*{stroke-linecap:butt;stroke-linejoin:round}</style></defs><g id="figure_1"><path d="M0 345.6h460.8V0H0z" fill="#fff" id="patch_1"/><g id="axes_1"><path d="M57.6 307.584h357.12V41.472H57.6z" fill="#fff" id="patch_2"/><g id="matplotlib.axis_1"><g id="xtick_1"><g id="line2d_1"><defs><path d="M0 0v3.5" id="m858ee2d93d" stroke="#000" stroke-width=".8"/></defs><use x="73.746" xlink:href="#m858ee2d93d" y="307.584" stroke="#000" stroke-width=".8"/></g><text x="73.746" y="322.182" font-family="DejaVu Sans" font-size="10" font-weight="400" text-anchor="middle" id="text_1">0.00</text></g><g id="xtick_2"><use x="117.188" xlink:href="#m858ee2d93d" y="307.584" stroke="#000" stroke-width=".8" id="line2d_2"/><text x="117.188" y="322.182" font-family="DejaVu Sans" font-size="10" font-weight="400" text-anchor="middle" id="text_2">0.05</text></g><g id="xtick_3"><use x="160.63" xlink:href="#m858ee2d93d" y="307.584" stroke="#000" stroke-width=".8" id="line2d_3"/><text x="160.63" y="322.182" font-family="DejaVu Sans" font-size="10" font-weight="400" text-anchor="middle" id="text_3">0.10</text></g><g id="xtick_4"><use x="204.072" xlink:href="#m858ee2d93d" y="307.584" stroke="#000" stroke-width=".8" id="line2d_4"/><text x="204.072" y="322.182" font-family="DejaVu Sans" font-size="10" font-weight="400" text-anchor="middle" id="text_4">0.15</text></g><g id="xtick_5"><use x="247.515" xlink:href="#m858ee2d93d" y="307.584" stroke="#000" stroke-width=".8" id="line2d_5"/><text x="247.515" y="322.182" font-family="DejaVu Sans" font-size="10" font-weight="400" text-anchor="middle" id="text_5">0.20</text></g><g id="xtick_6"><use x="290.957" xlink:href="#m858ee2d93d" y="307.584" stroke="#000" stroke-width=".8" id="line2d_6"/><text x="290.957" y="322.182" font-family="DejaVu Sans" font-size="10" font-weight="400" text-anchor="middle" id="text_6">0.25</text></g><g id="xtick_7"><use x="334.399" xlink:href="#m858ee2d93d" y="307.584" stroke="#000" stroke-width=".8" id="line2d_7"/><text x="334.399" y="322.182" font-family="DejaVu Sans" font-size="10" font-weight="400" text-anchor="middle" id="text_7">0.30</text></g><g id="xtick_8"><use x="377.841" xlink:href="#m858ee2d93d" y="307.584" stroke="#000" stroke-width=".8" id="line2d_8"/><text x="377.841" y="322.182" font-family="DejaVu Sans" font-size="10" font-weight="400" text-anchor="middle" id="text_8">0.35</text></g><text x="236.16" y="335.861" font-family="DejaVu Sans" font-size="10" font-weight="400" text-anchor="middle" id="text_9">Probability</text></g><g id="matplotlib.axis_2"><g id="ytick_1"><g id="line2d_9"><defs><path d="M0 0h-3.5" id="m7d0c6c78ad" stroke="#000" stroke-width=".8"/></defs><use x="57.6" xlink:href="#m7d0c6c78ad" y="290.744" stroke="#000" stroke-width=".8"/></g><text x="50.6" y="294.544" font-family="DejaVu Sans" font-size="10" font-weight="400" text-anchor="end" id="text_10">50</text></g><g id="ytick_2"><use x="57.6" xlink:href="#m7d0c6c78ad" y="240.938" stroke="#000" stroke-width=".8" id="line2d_10"/><text x="50.6" y="244.737" font-family="DejaVu Sans" font-size="10" font-weight="400" text-anchor="end" id="text_11">100</text></g><g id="ytick_3"><use x="57.6" xlink:href="#m7d0c6c78ad" y="191.131" stroke="#000" stroke-width=".8" id="line2d_11"/><text x="50.6" y="194.93" font-family="DejaVu Sans" font-size="10" font-weight="400" text-anchor="end" id="text_12">150</text></g><g id="ytick_4"><use x="57.6" xlink:href="#m7d0c6c78ad" y="141.324" stroke="#000" stroke-width=".8" id="line2d_12"/><text x="50.6" y="145.123" font-family="DejaVu Sans" font-size="10" font-weight="400" text-anchor="end" id="text_13">200</text></g><g id="ytick_5"><use x="57.6" xlink:href="#m7d0c6c78ad" y="91.517" stroke="#000" stroke-width=".8" id="line2d_13"/><text x="50.6" y="95.316" font-family="DejaVu Sans" font-size="10" font-weight="400" text-anchor="end" id="text_14">250</text></g><g id="ytick_6"><use x="57.6" xlink:href="#m7d0c6c78ad" y="41.71" stroke="#000" stroke-width=".8" id="line2d_14"/><text x="50.6" y="45.509" font-family="DejaVu Sans" font-size="10" font-weight="400" text-anchor="end" id="text_15">300</text></g><text transform="rotate(-90 25.433 174.528)" x="25.433" y="174.528" font-family="DejaVu Sans" font-size="10" font-weight="400" text-anchor="middle" id="text_16">Average Bits Consumed Per Call</text></g><path clip-path="url(#p436586ba5c)" d="M73.833 284.036l8.774 11.452 8.775-6.268 8.774 5.017 8.775-8.38 8.774-6.01 8.774-.736 8.775-4.002 8.774 9.503 8.775-6.945 8.774 11.422 8.775-8.772 8.774-1.341m17.549-9.372l8.774.996 8.775 1.479 8.774-4.993m17.55 4.005l8.774 2.482 8.774-2.315 8.775-11.478 8.774-9.614 8.774-1.827 8.775 15.71 8.774-6.984 8.775-17.873 8.774 13.705M372.164 237.353l8.774-2.823m17.55-2.865" fill="none" stroke="#1f77b4" stroke-linecap="square" stroke-width="1.5" id="line2d_15"/><path clip-path="url(#p436586ba5c)" d="M73.833 212.948l8.774 5.612 8.775 5.75 8.774-.002 8.775 6.447 8.774-31.904 8.774 5.945 8.775 2.643 8.774-10.981 8.775 2.092 8.774-13.558 8.775 16.212 8.774-8.22 8.775-7.007m17.548-.03l8.775-27.101 8.774 2.092 8.775-10.013 8.774-6.206 8.775-33.919 8.774 1.857 8.775 21.311 8.774-16.936 8.774-7.858 8.775 24.077 8.774-33.241m61.421-46.442" fill="none" stroke="#ff7f0e" stroke-linecap="square" stroke-width="1.5" id="line2d_16"/><path d="M57.6 307.584V41.472" fill="none" stroke="#000" stroke-linecap="square" stroke-width=".8" id="patch_3"/><path d="M414.72 307.584V41.472" fill="none" stroke="#000" stroke-linecap="square" stroke-width=".8" id="patch_4"/><path d="M57.6 307.584h357.12" fill="none" stroke="#000" stroke-linecap="square" stroke-width=".8" id="patch_5"/><path d="M57.6 41.472h357.12" fill="none" stroke="#000" stroke-linecap="square" stroke-width=".8" id="patch_6"/><text x="236.16" y="35.472" font-family="DejaVu Sans" font-size="12" font-weight="400" text-anchor="middle" id="text_17">Avg. Bits Consumed</text><g id="legend_1"><path d="M64.6 93.506h116.548q2 0 2-2V48.472q0-2-2-2H64.6q-2 0-2 2v43.034q0 2 2 2z" fill="#fff" opacity=".8" stroke="#ccc" id="patch_7"/><path d="M66.6 54.57h20" fill="none" stroke="#1f77b4" stroke-linecap="square" stroke-width="1.5" id="line2d_18"/><text x="94.6" y="58.07" font-family="DejaVu Sans" font-size="10" font-weight="400" id="text_18">2014 Add. x+0.5</text><path d="M66.6 69.249h20" fill="none" stroke="#ff7f0e" stroke-linecap="square" stroke-width="1.5" id="line2d_20"/><text x="94.6" y="72.749" font-family="DejaVu Sans" font-size="10" font-weight="400" id="text_19">2016 Add. x+0.5</text><path d="M66.6 83.927h20" fill="none" stroke="#2ca02c" stroke-linecap="square" stroke-width="1.5" id="line2d_22"/><text x="94.6" y="87.427" font-family="DejaVu Sans" font-size="10" font-weight="400" id="text_20">2019 Add. x+0.5</text></g></g></g><defs><clipPath id="p436586ba5c"><path d="M57.6 41.472h357.12v266.112H57.6z"/></clipPath></defs></svg>
